flaticon/productivity-and-development/waiting.svg

<svg xmlns="http://www.w3.org/2000/svg" width="32" height="32" viewBox="0 0 24 24">
    <path d="M 11.304688 13.675781 C 8.484375 13.675781 6.1875 11.4375 6.1875 8.6875 C 6.1875 5.9375 8.484375 3.699219 11.304688 3.699219 C 14.128906 3.699219 16.421875 5.9375 16.421875 8.6875 C 16.421875 11.4375 14.128906 13.675781 11.304688 13.675781 Z M 11.304688 4.71875 C 9.046875 4.71875 7.210938 6.5 7.210938 8.6875 C 7.210938 10.875 9.046875 12.65625 11.304688 12.65625 C 13.5625 12.65625 15.402344 10.875 15.402344 8.6875 C 15.402344 6.5 13.5625 4.71875 11.304688 4.71875 Z M 11.304688 4.71875"/>
    <path d="M 13.558594 9.199219 L 10.957031 9.199219 C 10.675781 9.199219 10.445312 8.96875 10.445312 8.6875 L 10.445312 5.445312 L 11.46875 5.445312 L 11.46875 8.175781 L 13.558594 8.175781 Z M 13.558594 9.199219"/>
    <path d="M 13.308594 24 L 7.328125 23.210938 C 7.230469 23.195312 7.140625 23.15625 7.0625 23.089844 L 6.335938 22.464844 C 6.226562 22.371094 6.160156 22.234375 6.160156 22.089844 C 6.144531 21.441406 6.175781 20.824219 6.214844 20.167969 C 6.246094 19.605469 6.277344 19.023438 6.277344 18.398438 C 6.277344 15.011719 4.5625 13.058594 4.550781 13.042969 C 3.488281 11.613281 2.929688 9.917969 2.929688 8.132812 C 2.929688 3.675781 6.363281 0.132812 10.761719 0.0273438 C 10.785156 0.0234375 16.625 -0.605469 19.445312 4.429688 C 20.125 5.648438 20.140625 7.023438 20.140625 8.300781 C 20.140625 9.398438 20.324219 10.46875 20.519531 11.464844 C 20.566406 11.679688 21.171875 13.066406 21.058594 13.804688 C 21.035156 13.941406 20.535156 14.738281 19.078125 14.808594 C 19.089844 14.828125 19.226562 15.566406 18.9375 15.949219 C 18.839844 16.074219 18.710938 16.164062 18.566406 16.230469 C 18.703125 16.398438 18.792969 16.632812 18.710938 16.949219 C 18.632812 17.265625 18.351562 17.382812 18.207031 17.488281 C 18.089844 17.570312 18.1875 18.292969 18.226562 18.519531 C 18.332031 19.148438 18.527344 20.324219 16.988281 20.59375 C 16.640625 20.65625 14.964844 20.300781 14.375 21.09375 C 14.011719 21.585938 13.820312 22.453125 13.835938 23.234375 C 13.835938 23.234375 13.972656 24.042969 13.308594 24 Z M 7.613281 22.21875 L 12.820312 22.90625 C 12.863281 22.019531 13.128906 21.121094 13.53125 20.523438 C 14.4375 19.175781 16.542969 19.636719 16.8125 19.589844 C 17.339844 19.496094 17.34375 19.425781 17.21875 18.6875 C 17.175781 18.4375 16.925781 17.121094 17.5 16.722656 C 17.339844 16.632812 17.167969 16.503906 17.066406 16.289062 C 16.964844 16.070312 17.03125 15.808594 17.226562 15.664062 C 17.394531 15.539062 18.035156 15.34375 18.109375 15.316406 C 18.109375 15.269531 17.878906 14.433594 18.507812 13.96875 C 18.871094 13.695312 19.898438 13.726562 20.0625 13.441406 C 20.101562 13.367188 19.582031 11.964844 19.519531 11.664062 C 19.3125 10.617188 19.117188 9.488281 19.117188 8.300781 C 19.117188 7.101562 19.066406 5.941406 18.539062 4.898438 C 16.421875 0.730469 10.882812 1.046875 10.859375 1.046875 C 6.984375 1.101562 3.949219 4.214844 3.949219 8.132812 C 3.949219 9.71875 4.453125 11.226562 5.410156 12.484375 C 5.425781 12.507812 7.296875 14.667969 7.296875 18.398438 C 7.296875 19.050781 7.265625 19.648438 7.230469 20.226562 C 7.203125 20.78125 7.171875 21.308594 7.175781 21.839844 Z M 7.613281 22.21875"/>
</svg>

<svg xmlns="http://www.w3.org/2000/svg" width="32" height="32" viewBox="0 0 24 24">
    <path d="M11.305 13.676c-2.82 0-5.117-2.239-5.117-4.989S8.483 3.7 11.305 3.7c2.824 0 5.117 2.239 5.117 4.989s-2.293 4.988-5.117 4.988zm0-8.957C9.047 4.719 7.21 6.5 7.21 8.687c0 2.188 1.836 3.97 4.094 3.97s4.097-1.782 4.097-3.97c0-2.187-1.84-3.968-4.097-3.968zm0 0"/>
    <path d="M13.559 9.2h-2.602a.513.513 0 0 1-.512-.512V5.444h1.024v2.73h2.09zm0 0"/>
    <path d="M13.309 24l-5.98-.79a.533.533 0 0 1-.266-.12l-.727-.625a.497.497 0 0 1-.176-.375c-.015-.649.016-1.266.055-1.922a31.24 31.24 0 0 0 .062-1.77c0-3.386-1.715-5.34-1.726-5.355a8.165 8.165 0 0 1-1.621-4.91c0-4.457 3.433-8 7.832-8.106.023-.004 5.863-.632 8.683 4.403.68 1.218.696 2.593.696 3.87 0 1.098.183 2.169.379 3.165.046.215.652 1.601.539 2.34-.024.136-.524.933-1.98 1.004.01.02.148.757-.142 1.14a.978.978 0 0 1-.37.281.774.774 0 0 1 .144.72c-.078.316-.36.433-.504.538-.117.082-.02.805.02 1.032.105.628.3 1.804-1.239 2.074-.347.062-2.023-.293-2.613.5-.363.492-.555 1.36-.54 2.14 0 0 .138.809-.526.766zm-5.696-1.781l5.207.687c.043-.886.309-1.785.711-2.383.906-1.347 3.012-.886 3.281-.933.528-.094.532-.164.407-.902-.043-.25-.293-1.567.281-1.965a.987.987 0 0 1-.434-.434.51.51 0 0 1 .16-.625c.169-.125.81-.32.883-.348 0-.046-.23-.882.399-1.347.363-.274 1.39-.242 1.555-.528.039-.074-.481-1.476-.543-1.777-.207-1.047-.403-2.176-.403-3.363 0-1.2-.05-2.36-.578-3.403-2.117-4.168-7.656-3.851-7.68-3.851-3.875.055-6.91 3.168-6.91 7.086 0 1.586.504 3.094 1.461 4.351.016.024 1.887 2.184 1.887 5.914 0 .653-.031 1.25-.067 1.829-.027.554-.058 1.082-.054 1.613zm0 0"/>
</svg>
